src/assets/images/callback.svg

<svg width="38" height="38" viewBox="0 0 38 38" fill="none" xmlns="http://www.w3.org/2000/svg">
<rect x="0.000244141" width="38" height="38" rx="19" fill="url(#paint0_linear)"/>
<path d="M19 12C15.1422 12 12 15.1265 12 18.9996C12 20.1974 12.3111 21.364 12.9022 22.4061L12.0466 24.9726C11.9533 25.2526 12.0311 25.5637 12.2333 25.7659C12.4642 25.9736 12.7512 26.0625 13.0266 25.9526L15.5933 25.097C16.6355 25.6881 17.8022 25.9992 19 25.9992C22.8733 25.9992 26 22.8571 26 18.9996C26 15.1265 22.8733 12 19 12V12ZM15.8889 19.7773C15.4688 19.7773 15.1111 19.4196 15.1111 18.9996C15.1111 18.5641 15.4688 18.2219 15.8889 18.2219C16.3244 18.2219 16.6667 18.5641 16.6667 18.9996C16.6667 19.4196 16.3244 19.7773 15.8889 19.7773ZM19 19.7773C18.5799 19.7773 18.2222 19.4196 18.2222 18.9996C18.2222 18.5641 18.5799 18.2219 19 18.2219C19.4355 18.2219 19.7778 18.5641 19.7778 18.9996C19.7778 19.4196 19.4355 19.7773 19 19.7773ZM22.1111 19.7773C21.6911 19.7773 21.3333 19.4196 21.3333 18.9996C21.3333 18.5641 21.6911 18.2219 22.1111 18.2219C22.5466 18.2219 22.8889 18.5641 22.8889 18.9996C22.8889 19.4196 22.5466 19.7773 22.1111 19.7773Z" fill="white"/>
<defs>
<linearGradient id="paint0_linear" x1="48.5002" y1="-36" x2="-22.9998" y2="70.5" gradientUnits="userSpaceOnUse">
<stop stop-color="#B1E2FF"/>
<stop offset="1" stop-color="#68C7FF"/>
</linearGradient>
</defs>
</svg>

<svg width="38" height="38" fill="none" xmlns="http://www.w3.org/2000/svg"><rect width="38" height="38" rx="19" fill="url(#paint0_linear)"/><path d="M19 12a7 7 0 00-7 7c0 1.197.311 2.364.902 3.406l-.855 2.567a.782.782 0 00.186.793c.231.208.518.297.794.187l2.566-.856a6.888 6.888 0 003.407.902 7 7 0 007-7A6.991 6.991 0 0019 12zm-3.111 7.777A.79.79 0 0115.11 19a.78.78 0 01.778-.778.77.77 0 01.778.778.78.78 0 01-.778.777zm3.111 0a.79.79 0 01-.778-.777.78.78 0 01.778-.778.77.77 0 01.778.778.78.78 0 01-.778.777zm3.111 0a.79.79 0 01-.778-.777.78.78 0 01.778-.778.77.77 0 01.778.778.78.78 0 01-.778.777z" fill="#fff"/><defs><linearGradient id="paint0_linear" x1="48.5" y1="-36" x2="-23" y2="70.5" gradientUnits="userSpaceOnUse"><stop stop-color="#B1E2FF"/><stop offset="1" stop-color="#68C7FF"/></linearGradient></defs></svg>
